X:2
T:Let's Cool One
C:Thelonius Monk
L:1/4
M:C
I:linebreak $
K:Eb
"Eb" D D D C |"Fm" E E"Bb7" E F |"Eb" G A"Fm" B c |"Gø" _d2"C7" z c |$"Fm" B =B/ c3/2 z ||1
"Bb7" z2 B/=B/c/e/ |"Eb6" c4 "C7" x4|"Fm" z4 "Bb7" x4:|2$"Bb7" z2 B =B/c/ |"Eb" z4 | z4 ||
[K:Ab]"Bbm" e2 d B |$"Eb9" e2 d/ =B A/ |"Ab" z2 =B (3c/e/f/ | f4 ||[K:Bb]"Cm" B3 B |$"F4" B2 F2 |
"Fm" B,4 |"Bb7" z4 ||[K:Eb]"Eb" D D D C |$"Fm" E E"Bb7" E F |"Eb" G A"Fm" B c/_d/ |
"Gø" z2"C7" z c |"Fm" B =B/ c3/2 z |$"Bb9" z2 (3B =B c |"Eb6" (3B G E (3B, =B, C |
(3B, G, E, z2 |]

